src/images/google.svg

<svg fill="none" height="89" viewBox="0 0 245 89" width="245" xmlns="http://www.w3.org/2000/svg"><g fill="#fff"><path d="m93.688 39.096c1.648 0 3.12-.56 4.112-1.648l-.752-.752c-.912.944-2.032 1.344-3.312 1.344-2.704 0-4.736-1.984-4.736-4.64s2.032-4.64 4.736-4.64c1.28 0 2.4.4 3.312 1.328l.752-.752c-.992-1.088-2.464-1.632-4.096-1.632-3.376 0-5.872 2.416-5.872 5.696s2.496 5.696 5.856 5.696zm9.461-.016c2.464 0 4.272-1.792 4.272-4.288s-1.808-4.272-4.272-4.272-4.288 1.776-4.288 4.272 1.824 4.288 4.288 4.288zm0-1.008c-1.792 0-3.136-1.312-3.136-3.28s1.344-3.28 3.136-3.28 3.12 1.312 3.12 3.28-1.328 3.28-3.12 3.28zm17.087-7.552c-1.52 0-2.72.688-3.328 1.776-.512-1.184-1.6-1.776-2.992-1.776-1.408 0-2.496.592-3.088 1.6v-1.536h-1.088v8.416h1.136v-4.416c0-1.92 1.104-3.04 2.816-3.04 1.536 0 2.432.912 2.432 2.688v4.768h1.136v-4.416c0-1.92 1.088-3.04 2.816-3.04 1.52 0 2.416.912 2.416 2.688v4.768h1.136v-4.88c0-2.416-1.344-3.6-3.392-3.6zm7.049-1.776c.48 0 .832-.368.832-.832 0-.432-.368-.784-.832-.784s-.832.368-.832.8c0 .448.368.816.832.816zm-.576 10.256h1.136v-8.416h-1.136zm8.585-8.48c-1.456 0-2.592.592-3.2 1.616v-1.552h-1.088v8.416h1.136v-4.416c0-1.92 1.136-3.04 2.944-3.04 1.6 0 2.528.912 2.528 2.688v4.768h1.136v-4.88c0-2.416-1.408-3.6-3.456-3.6zm13.275.064v1.616c-.704-1.104-1.92-1.68-3.328-1.68-2.4 0-4.224 1.648-4.224 4.064s1.824 4.096 4.224 4.096c1.376 0 2.576-.56 3.28-1.632v1.072c0 2.08-.976 3.056-3.104 3.056-1.296 0-2.512-.432-3.312-1.152l-.576.864c.88.832 2.384 1.296 3.92 1.296 2.784 0 4.208-1.312 4.208-4.208v-7.392zm-3.216 7.088c-1.856 0-3.184-1.264-3.184-3.088s1.328-3.072 3.184-3.072 3.2 1.248 3.2 3.072-1.344 3.088-3.2 3.088zm13.925 1.408c2.192 0 3.472-.944 3.472-2.4 0-3.232-5.456-1.52-5.456-3.792 0-.8.672-1.392 2.192-1.392.864 0 1.744.208 2.48.72l.496-.912c-.704-.48-1.888-.784-2.976-.784-2.144 0-3.328 1.024-3.328 2.4 0 3.328 5.456 1.6 5.456 3.792 0 .832-.656 1.376-2.256 1.376-1.184 0-2.32-.416-2.992-.944l-.512.896c.688.592 2.032 1.04 3.424 1.04zm9.012 0c2.464 0 4.272-1.792 4.272-4.288s-1.808-4.272-4.272-4.272-4.288 1.776-4.288 4.272 1.824 4.288 4.288 4.288zm0-1.008c-1.792 0-3.136-1.312-3.136-3.28s1.344-3.28 3.136-3.28 3.12 1.312 3.12 3.28-1.328 3.28-3.12 3.28zm10.031 1.008c2.464 0 4.272-1.792 4.272-4.288s-1.808-4.272-4.272-4.272-4.288 1.776-4.288 4.272 1.824 4.288 4.288 4.288zm0-1.008c-1.792 0-3.136-1.312-3.136-3.28s1.344-3.28 3.136-3.28 3.12 1.312 3.12 3.28-1.328 3.28-3.12 3.28zm10.879-7.552c-1.456 0-2.592.592-3.2 1.616v-1.552h-1.088v8.416h1.136v-4.416c0-1.92 1.136-3.04 2.944-3.04 1.6 0 2.528.912 2.528 2.688v4.768h1.136v-4.88c0-2.416-1.408-3.6-3.456-3.6zm-94.48 15.48h-6.06v14h3.24v-3.86h2.82c3.74 0 6.08-1.94 6.08-5.06 0-3.14-2.34-5.08-6.08-5.08zm-.18 7.5h-2.64v-4.86h2.64c1.98 0 2.98.9 2.98 2.44 0 1.52-1 2.42-2.98 2.42zm8.548 6.5h3.12v-14.84h-3.12zm10.356-10.92c-1.72 0-3.46.46-4.64 1.3l1.12 2.18c.78-.62 1.96-1 3.1-1 1.68 0 2.48.78 2.48 2.12h-2.48c-3.28 0-4.62 1.32-4.62 3.22 0 1.86 1.5 3.26 4.02 3.26 1.58 0 2.7-.52 3.28-1.5v1.34h2.92v-6.14c0-3.26-1.9-4.78-5.18-4.78zm-.24 8.98c-1.1 0-1.76-.52-1.76-1.3 0-.72.46-1.26 1.92-1.26h2.14v1.1c-.36.98-1.26 1.46-2.3 1.46zm15.729-8.82-3.04 7.3-3.02-7.3h-3.221l4.661 10.84-.04.1c-.42.96-.9 1.34-1.76 1.34-.62 0-1.28-.26-1.76-.68l-1.141 2.22c.701.62 1.901.98 3.001.98 1.94 0 3.42-.78 4.46-3.38l4.86-11.42zm14.757 11c4 0 5.94-2 5.94-4.34 0-5.14-8.14-3.36-8.14-5.94 0-.88.74-1.6 2.66-1.6 1.24 0 2.58.36 3.88 1.1l1-2.46c-1.3-.82-3.1-1.24-4.86-1.24-3.98 0-5.9 1.98-5.9 4.36 0 5.2 8.14 3.4 8.14 6.02 0 .86-.78 1.5-2.7 1.5-1.68 0-3.44-.6-4.62-1.46l-1.1 2.44c1.24.96 3.48 1.62 5.7 1.62zm14.034-2.96c-.34.26-.8.4-1.26.4-.84 0-1.34-.5-1.34-1.42v-4.38h2.68v-2.4h-2.68v-2.62h-3.12v2.62h-1.66v2.4h1.66v4.42c0 2.56 1.48 3.86 4.02 3.86.96 0 1.9-.22 2.54-.68zm7.379 2.88c3.42 0 5.9-2.3 5.9-5.54s-2.48-5.54-5.9-5.54-5.92 2.3-5.92 5.54 2.5 5.54 5.92 5.54zm0-2.56c-1.56 0-2.76-1.12-2.76-2.98s1.2-2.98 2.76-2.98 2.74 1.12 2.74 2.98-1.18 2.98-2.74 2.98zm10.965-6.94v-1.42h-2.98v10.76h3.12v-5.08c0-2.06 1.14-3 2.86-3 .24 0 .44.02.7.04v-2.88c-1.66 0-2.94.54-3.7 1.58zm15.998 4c0-3.46-2.44-5.58-5.6-5.58-3.28 0-5.74 2.32-5.74 5.54 0 3.2 2.42 5.54 6.14 5.54 1.94 0 3.44-.6 4.44-1.74l-1.66-1.8c-.74.7-1.56 1.04-2.7 1.04-1.64 0-2.78-.82-3.08-2.16h8.14c.02-.26.06-.6.06-.84zm-5.58-3.22c1.4 0 2.42.88 2.64 2.24h-5.3c.22-1.38 1.24-2.24 2.66-2.24z"/><path d="m61.6063 49.7776-3.9407-3.8748-14.4664 14.2657z"/><path d="m61.6063 39.2297-18.4071-10.3908 14.4664 14.2656z"/><path d="m67.3742 46.4622c1.1798-.9213 1.1798-2.9975-.0784-3.9188l-3.861-2.1972-4.3078 4.158 4.3078 4.158z"/><path d="m39.4217 61 16.8218-16.5027-16.8218-16.4959v-.0014c-.8511.4386-1.4217 1.2375-1.4217 2.2756v28.4488c0 1.0381.5706 1.837 1.4217 2.2756z"/></g><rect height="87" rx="15" stroke="#fff" stroke-width="2" width="243" x="1" y="1"/></svg>

<svg width="245" height="89" viewBox="0 0 245 89" fill="none" xmlns="http://www.w3.org/2000/svg">
<path d="M93.688 39.096C95.336 39.096 96.808 38.536 97.8 37.448L97.048 36.696C96.136 37.64 95.016 38.04 93.736 38.04C91.032 38.04 89 36.056 89 33.4C89 30.744 91.032 28.76 93.736 28.76C95.016 28.76 96.136 29.16 97.048 30.088L97.8 29.336C96.808 28.248 95.336 27.704 93.704 27.704C90.328 27.704 87.832 30.12 87.832 33.4C87.832 36.68 90.328 39.096 93.688 39.096ZM103.149 39.08C105.613 39.08 107.421 37.288 107.421 34.792C107.421 32.296 105.613 30.52 103.149 30.52C100.685 30.52 98.861 32.296 98.861 34.792C98.861 37.288 100.685 39.08 103.149 39.08ZM103.149 38.072C101.357 38.072 100.013 36.76 100.013 34.792C100.013 32.824 101.357 31.512 103.149 31.512C104.941 31.512 106.269 32.824 106.269 34.792C106.269 36.76 104.941 38.072 103.149 38.072ZM120.236 30.52C118.716 30.52 117.516 31.208 116.908 32.296C116.396 31.112 115.308 30.52 113.916 30.52C112.508 30.52 111.42 31.112 110.828 32.12V30.584H109.74V39H110.876V34.584C110.876 32.664 111.98 31.544 113.692 31.544C115.228 31.544 116.124 32.456 116.124 34.232V39H117.26V34.584C117.26 32.664 118.348 31.544 120.076 31.544C121.596 31.544 122.492 32.456 122.492 34.232V39H123.628V34.12C123.628 31.704 122.284 30.52 120.236 30.52ZM127.285 28.744C127.765 28.744 128.117 28.376 128.117 27.912C128.117 27.48 127.749 27.128 127.285 27.128C126.821 27.128 126.453 27.496 126.453 27.928C126.453 28.376 126.821 28.744 127.285 28.744ZM126.709 39H127.845V30.584H126.709V39ZM135.294 30.52C133.838 30.52 132.702 31.112 132.094 32.136V30.584H131.006V39H132.142V34.584C132.142 32.664 133.278 31.544 135.086 31.544C136.686 31.544 137.614 32.456 137.614 34.232V39H138.75V34.12C138.75 31.704 137.342 30.52 135.294 30.52ZM148.569 30.584V32.2C147.865 31.096 146.649 30.52 145.241 30.52C142.841 30.52 141.017 32.168 141.017 34.584C141.017 37 142.841 38.68 145.241 38.68C146.617 38.68 147.817 38.12 148.521 37.048V38.12C148.521 40.2 147.545 41.176 145.417 41.176C144.121 41.176 142.905 40.744 142.105 40.024L141.529 40.888C142.409 41.72 143.913 42.184 145.449 42.184C148.233 42.184 149.657 40.872 149.657 37.976V30.584H148.569ZM145.353 37.672C143.497 37.672 142.169 36.408 142.169 34.584C142.169 32.76 143.497 31.512 145.353 31.512C147.209 31.512 148.553 32.76 148.553 34.584C148.553 36.408 147.209 37.672 145.353 37.672ZM159.278 39.08C161.47 39.08 162.75 38.136 162.75 36.68C162.75 33.448 157.294 35.16 157.294 32.888C157.294 32.088 157.966 31.496 159.486 31.496C160.35 31.496 161.23 31.704 161.966 32.216L162.462 31.304C161.758 30.824 160.574 30.52 159.486 30.52C157.342 30.52 156.158 31.544 156.158 32.92C156.158 36.248 161.614 34.52 161.614 36.712C161.614 37.544 160.958 38.088 159.358 38.088C158.174 38.088 157.038 37.672 156.366 37.144L155.854 38.04C156.542 38.632 157.886 39.08 159.278 39.08ZM168.29 39.08C170.754 39.08 172.562 37.288 172.562 34.792C172.562 32.296 170.754 30.52 168.29 30.52C165.826 30.52 164.002 32.296 164.002 34.792C164.002 37.288 165.826 39.08 168.29 39.08ZM168.29 38.072C166.498 38.072 165.154 36.76 165.154 34.792C165.154 32.824 166.498 31.512 168.29 31.512C170.082 31.512 171.41 32.824 171.41 34.792C171.41 36.76 170.082 38.072 168.29 38.072ZM178.321 39.08C180.785 39.08 182.593 37.288 182.593 34.792C182.593 32.296 180.785 30.52 178.321 30.52C175.857 30.52 174.033 32.296 174.033 34.792C174.033 37.288 175.857 39.08 178.321 39.08ZM178.321 38.072C176.529 38.072 175.185 36.76 175.185 34.792C175.185 32.824 176.529 31.512 178.321 31.512C180.113 31.512 181.441 32.824 181.441 34.792C181.441 36.76 180.113 38.072 178.321 38.072ZM189.2 30.52C187.744 30.52 186.608 31.112 186 32.136V30.584H184.912V39H186.048V34.584C186.048 32.664 187.184 31.544 188.992 31.544C190.592 31.544 191.52 32.456 191.52 34.232V39H192.656V34.12C192.656 31.704 191.248 30.52 189.2 30.52ZM94.72 46H88.66V60H91.9V56.14H94.72C98.46 56.14 100.8 54.2 100.8 51.08C100.8 47.94 98.46 46 94.72 46ZM94.54 53.5H91.9V48.64H94.54C96.52 48.64 97.52 49.54 97.52 51.08C97.52 52.6 96.52 53.5 94.54 53.5ZM103.088 60H106.208V45.16H103.088V60ZM113.444 49.08C111.724 49.08 109.984 49.54 108.804 50.38L109.924 52.56C110.704 51.94 111.884 51.56 113.024 51.56C114.704 51.56 115.504 52.34 115.504 53.68H113.024C109.744 53.68 108.404 55 108.404 56.9C108.404 58.76 109.904 60.16 112.424 60.16C114.004 60.16 115.124 59.64 115.704 58.66V60H118.624V53.86C118.624 50.6 116.724 49.08 113.444 49.08ZM113.204 58.06C112.104 58.06 111.444 57.54 111.444 56.76C111.444 56.04 111.904 55.5 113.364 55.5H115.504V56.6C115.144 57.58 114.244 58.06 113.204 58.06ZM128.933 49.24L125.893 56.54L122.873 49.24H119.652L124.313 60.08L124.273 60.18C123.853 61.14 123.373 61.52 122.513 61.52C121.893 61.52 121.233 61.26 120.753 60.84L119.612 63.06C120.313 63.68 121.513 64.04 122.613 64.04C124.553 64.04 126.033 63.26 127.073 60.66L131.933 49.24H128.933ZM143.69 60.24C147.69 60.24 149.63 58.24 149.63 55.9C149.63 50.76 141.49 52.54 141.49 49.96C141.49 49.08 142.23 48.36 144.15 48.36C145.39 48.36 146.73 48.72 148.03 49.46L149.03 47C147.73 46.18 145.93 45.76 144.17 45.76C140.19 45.76 138.27 47.74 138.27 50.12C138.27 55.32 146.41 53.52 146.41 56.14C146.41 57 145.63 57.64 143.71 57.64C142.03 57.64 140.27 57.04 139.09 56.18L137.99 58.62C139.23 59.58 141.47 60.24 143.69 60.24ZM157.724 57.28C157.384 57.54 156.924 57.68 156.464 57.68C155.624 57.68 155.124 57.18 155.124 56.26V51.88H157.804V49.48H155.124V46.86H152.004V49.48H150.344V51.88H152.004V56.3C152.004 58.86 153.484 60.16 156.024 60.16C156.984 60.16 157.924 59.94 158.564 59.48L157.724 57.28ZM165.103 60.16C168.523 60.16 171.003 57.86 171.003 54.62C171.003 51.38 168.523 49.08 165.103 49.08C161.683 49.08 159.183 51.38 159.183 54.62C159.183 57.86 161.683 60.16 165.103 60.16ZM165.103 57.6C163.543 57.6 162.343 56.48 162.343 54.62C162.343 52.76 163.543 51.64 165.103 51.64C166.663 51.64 167.843 52.76 167.843 54.62C167.843 56.48 166.663 57.6 165.103 57.6ZM176.068 50.66V49.24H173.088V60H176.208V54.92C176.208 52.86 177.348 51.92 179.068 51.92C179.308 51.92 179.508 51.94 179.768 51.96V49.08C178.108 49.08 176.828 49.62 176.068 50.66ZM192.066 54.66C192.066 51.2 189.626 49.08 186.466 49.08C183.186 49.08 180.726 51.4 180.726 54.62C180.726 57.82 183.146 60.16 186.866 60.16C188.806 60.16 190.306 59.56 191.306 58.42L189.646 56.62C188.906 57.32 188.086 57.66 186.946 57.66C185.306 57.66 184.166 56.84 183.866 55.5H192.006C192.026 55.24 192.066 54.9 192.066 54.66ZM186.486 51.44C187.886 51.44 188.906 52.32 189.126 53.68H183.826C184.046 52.3 185.066 51.44 186.486 51.44Z" fill="white"/>
<path d="M61.6063 49.7776L57.6656 45.9028L43.1992 60.1685L61.6063 49.7776Z" fill="white"/>
<path d="M61.6063 39.2297L43.1992 28.8389L57.6656 43.1045L61.6063 39.2297Z" fill="white"/>
<path d="M67.3742 46.4622C68.554 45.5409 68.554 43.4647 67.2958 42.5434L63.4348 40.3462L59.127 44.5042L63.4348 48.6622L67.3742 46.4622Z" fill="white"/>
<path d="M39.4217 61L56.2435 44.4973L39.4217 28.0014V28C38.5706 28.4386 38 29.2375 38 30.2756V58.7244C38 59.7625 38.5706 60.5614 39.4217 61V61Z" fill="white"/>
<rect x="1" y="1" width="243" height="87" rx="15" stroke="white" stroke-width="2"/>
</svg>
